!!!OTL: Sipan
!!!ARE: Asia, China,ÿShandong, Rizhao
!! III, 393
!!!SCT: C1576B
!!!YEM: Copyright 1995, estate of Helmut Schaffrath.
**kern
*ICvox
*Ivox
*M2/4
*k[f#c#g#d#]
*E:
{8f#
4f#
16b
16g#
=1
8f#
8e
8c#
8e
=2
8f#
4f#
8g#
=3
2f#}
=4
{8b
8b
16cc#
16ee
16cc#
16g#
=5
8.b
16cc#
8b
16g#
16f#
=6
8.e
16f#
8g#
8g#
=7
8f#
8e
8c#
16B
16c#
=8
4e
4e}
=9
{8f#
16e
16f#
8g#
8f#
=10
4.e
8f#
=11
2e}
=12
{8b
8ee
8cc#
8b
=13
2g#
=14
8b
8ee
8cc#
8g#
=15
8b
8cc#
8b
16g#
16f#
=16
8.e
16f#
8g#
8g#
=17
8f#
8e
8c#
16B
16c#
=18
4e
4e}
=19
{8f#
16f#
16e
8c#
16c#
16e
=20
4.f#
8g#
=21
8b
8cc#
8b
8g#
=22
8f#
8g#
8b
8g#
=23
8f#
8g#
8f#
8e
=24
2c#}
=25
{8f#
8g#
8e
8c#
=26
4B
8.B
16c#
=27
8e
8f#
8e
8c#
=28
4.B
8c#
=29
2B}
==
!!!AGN: Xiaodiao, Dieduanqiao
!!!AMT: simple duple
!!!AIN: vox
!!!EED: Helmut Schaffrath
!!!EEV: 1.0
*-
